X: 54
T:The Knife's Edge
M:2/4
L:1/8
R:Polka
Z:Steve Mansfield
K:G
G>A BA | GA BG/B/ | dB GB | A/G/A/B/ A2 | G>A BA | GA BG/B/ |
dB GB | A2G2 :: de/f/ gf/e/ | de ed | de/f/ gf/e/ |
dc B>c | dd ed | cB AB/c/ | dB GB | A2G2 :|
<end>
<start>
